modules/hawcons-stroke/icons/icon-38-two-fingers-swipe-right.svg

<?xml version="1.0" encoding="UTF-8" standalone="no"?>
<svg width="32px" height="32px" viewBox="0 0 32 32" version="1.1" xmlns="http://www.w3.org/2000/svg" xmlns:xlink="http://www.w3.org/1999/xlink" xmlns:sketch="http://www.bohemiancoding.com/sketch/ns">
    <!-- Generator: Sketch 3.0.3 (7891) - http://www.bohemiancoding.com/sketch -->
    <title>icon 38 two fingers swipe right</title>
    <desc>Created with Sketch.</desc>
    <defs></defs>
    <g id="Page-1" stroke="none" stroke-width="1" fill="none" fill-rule="evenodd" sketch:type="MSPage">
        <g id="icon-38-two-fingers-swipe-right" sketch:type="MSArtboardGroup" fill="#929292">
            <path d="M22,18 L22,31 L13,31 L13,14.5050269 C13,12.0135683 15.0147186,10 17.5,10 C19.9802243,10 22,12.0169692 22,14.5050269 L22,17 L28.049999,17 L24.799999,13.75 L25.549999,13 L30.049999,17.5 L25.549999,22 L24.799999,21.25 L28.049999,18 L22,18 L22,18 Z M6.5,13 C4.01471863,13 2,15.0124342 2,17.495728 L2,31 L11,31 L11,17.495728 C11,15.012806 8.98022433,13 6.5,13 L6.5,13 Z M6.5,14 C4.56700338,14 3,15.5632794 3,17.4914967 L3,30 L10,30 L10,17.4914967 C10,15.5631963 8.42906336,14 6.5,14 L6.5,14 Z M6.5,15 C5.11928813,15 4,16.1285541 4,17.5097752 L4,21 L9,21 L9,17.5097752 C9,16.1236646 7.89033794,15 6.5,15 L6.5,15 Z M6.5,16 C5.67157288,16 5,16.6785455 5,17.5008327 L5,20 L8,20 L8,17.5008327 C8,16.6719457 7.33420277,16 6.5,16 L6.5,16 Z M4,24 L4,25 L9,25 L9,24 L4,24 L4,24 Z M4,26 L4,27 L9,27 L9,26 L4,26 L4,26 Z M17.5,11 C15.5670034,11 14,12.5710144 14,14.5070349 L14,30 L21,30 L21,14.5070349 C21,12.570153 19.4290634,11 17.5,11 L17.5,11 Z M17.5,12 C16.1192881,12 15,13.1285541 15,14.5097752 L15,18 L20,18 L20,14.5097752 C20,13.1236646 18.8903379,12 17.5,12 L17.5,12 Z M17.5,13 C16.6715729,13 16,13.6785455 16,14.5008327 L16,17 L19,17 L19,14.5008327 C19,13.6719457 18.3342028,13 17.5,13 L17.5,13 Z M15,21 L15,22 L20,22 L20,21 L15,21 L15,21 Z M15,23 L15,24 L20,24 L20,23 L15,23 L15,23 Z" id="two-fingers-swipe-right" sketch:type="MSShapeGroup"></path>
        </g>
    </g>
</svg>

<svg width="32" height="32" xmlns="http://www.w3.org/2000/svg"><path d="M22 18v13h-9V14.505A4.5 4.5 0 0 1 17.5 10c2.48 0 4.5 2.017 4.5 4.505V17h6.05l-3.25-3.25.75-.75 4.5 4.5-4.5 4.5-.75-.75L28.05 18H22zM6.5 13A4.498 4.498 0 0 0 2 17.496V31h9V17.496A4.501 4.501 0 0 0 6.5 13zm0 1A3.496 3.496 0 0 0 3 17.491V30h7V17.491A3.498 3.498 0 0 0 6.5 14zm0 1C5.12 15 4 16.129 4 17.51V21h5v-3.49C9 16.124 7.89 15 6.5 15zm0 1c-.828 0-1.5.679-1.5 1.5V20h3v-2.5c0-.828-.666-1.5-1.5-1.5zM4 24v1h5v-1H4zm0 2v1h5v-1H4zm13.5-15a3.504 3.504 0 0 0-3.5 3.507V30h7V14.507A3.506 3.506 0 0 0 17.5 11zm0 1c-1.38 0-2.5 1.129-2.5 2.51V18h5v-3.49c0-1.386-1.11-2.51-2.5-2.51zm0 1c-.828 0-1.5.679-1.5 1.5V17h3v-2.5c0-.828-.666-1.5-1.5-1.5zM15 21v1h5v-1h-5zm0 2v1h5v-1h-5z" fill="#929292" fill-rule="evenodd"/></svg>
